src/assets/images/icons/search-line.svg

<svg width="24" height="24" viewBox="0 0 24 24" fill="none" xmlns="http://www.w3.org/2000/svg">
<g clip-path="url(#clip0_58_16520)">
<path d="M18.031 16.617L22.314 20.899L20.899 22.314L16.617 18.031C15.0237 19.3082 13.042 20.0029 11 20C6.032 20 2 15.968 2 11C2 6.032 6.032 2 11 2C15.968 2 20 6.032 20 11C20.0029 13.042 19.3082 15.0237 18.031 16.617ZM16.025 15.875C17.2941 14.5699 18.0029 12.8204 18 11C18 7.132 14.867 4 11 4C7.132 4 4 7.132 4 11C4 14.867 7.132 18 11 18C12.8204 18.0029 14.5699 17.2941 15.875 16.025L16.025 15.875Z" fill="#181D27"/>
</g>
<defs>
<clipPath id="clip0_58_16520">
<rect width="24" height="24" fill="white"/>
</clipPath>
</defs>
</svg>

<svg xmlns="http://www.w3.org/2000/svg" width="24" height="24" fill="none" viewBox="0 0 24 24"><g clip-path="url(#a)"><path fill="#181d27" d="m18.031 16.617 4.283 4.282-1.415 1.415-4.282-4.283A8.96 8.96 0 0 1 11 20c-4.968 0-9-4.032-9-9s4.032-9 9-9 9 4.032 9 9a8.96 8.96 0 0 1-1.969 5.617m-2.006-.742A6.98 6.98 0 0 0 18 11c0-3.868-3.133-7-7-7s-7 3.132-7 7 3.132 7 7 7a6.98 6.98 0 0 0 4.875-1.975z"/></g><defs><clipPath id="a"><path fill="#fff" d="M0 0h24v24H0z"/></clipPath></defs></svg>
